icons/4_Outdated/Facebook v1.svg

<svg width="1024" height="1024" viewBox="0 0 1024 1024" fill="none" xmlns="http://www.w3.org/2000/svg">
<g clip-path="url(#clip0_3_542)">
<path d="M512 1024C794.77 1024 1024 794.77 1024 512C1024 229.23 794.77 0 512 0C229.23 0 0 229.23 0 512C0 794.77 229.23 1024 512 1024Z" fill="#54688C"/>
<path d="M551.749 768V534.78H630.369L642.149 443.49H551.749V385.35C551.749 358.98 559.069 341.01 596.879 341.01H644.799V259.59C636.459 258.48 607.859 256 574.569 256C505.069 256 457.509 298.4 457.509 376.31V443.49H379.189V534.78H457.519V768H551.749Z" fill="white"/>
</g>
<defs>
<clipPath id="clip0_3_542">
<rect width="1024" height="1024" fill="white"/>
</clipPath>
</defs>
</svg>

<svg xmlns="http://www.w3.org/2000/svg" width="1024" height="1024" fill="none">
   <g clip-path="url(#a)">
      <path fill="#54688C" d="M512 1024c282.77 0 512-229.23 512-512S794.77 0 512 0 0 229.23 0 512s229.23 512 512 512Z"/>
      <path fill="#fff" d="M551.749 768V534.78h78.62l11.78-91.29h-90.4v-58.14c0-26.37 7.32-44.34 45.13-44.34h47.92v-81.42c-8.34-1.11-36.94-3.59-70.23-3.59-69.5 0-117.06 42.4-117.06 120.31v67.18h-78.32v91.29h78.33V768h94.23Z"/>
   </g>
   <defs>
      <clipPath id="a">
         <path fill="#fff" d="M0 0h1024v1024H0z"/>
      </clipPath>
   </defs>
</svg>
